relation-one-or-many-to-zero-or-one.svg

<svg fill="currentColor" viewBox="0 0 24 24"><path d="M21 15v-2h-2v2h-.21a2.5 2.5 0 0 0-4.58 0H13V7H7V5H5v2L3 5H2v6h1l2-2v2h2V9h4v8h3.21a2.5 2.5 0 0 0 4.58 0H19v2h2v-2h1v-2m-5.5 2a1 1 0 1 1 1-1 1 1 0 0 1-1 1"/></svg>

<svg  viewBox="0 0 24 24" fill="currentColor"><path  d="M21 15V13H19V15H18.79A2.5 2.5 0 0 0 14.21 15H13V7H7V5H5V7L3 5H2V11H3L5 9V11H7V9H11V17H14.21A2.5 2.5 0 0 0 18.79 17H19V19H21V17H22V15M16.5 17A1 1 0 1 1 17.5 16A1 1 0 0 1 16.5 17Z"/></svg>
